X: 13199
T: Fish & Dolphin
R: jig
M: 6/8
K: Bminor
A|:B2f fed|cde A2c|dBB fBb|afg fdc|
~B3 fed|c/d/ec Ace|~d3 efg|1 fdc B2F:|2 fdc B2c||
|:~d3 def|ABA a2g|~f3 fed|cde Adc|
B2d cde|def efa|bBb afg|1 fdc B2c:|2 fdc B2F||

